gama.ui.shared/icons_svg/light/status/status.simulation.svg

<svg height="17.264" viewBox="-577.676 -3817.678 17.32 17.264" width="17.32" xmlns="http://www.w3.org/2000/svg"><path d="m-572.95545-3807.5215c-3.59355-.4332-5.55105-4.5245-3.53641-7.5581 2.88226-4.343 9.45586-1.8571 9.05571 3.431-.15751 2.0934-1.65645 3.2546-2.02985 5.1471-.87525 4.4319 4.6707 6.5609 7.1503 2.9279 1.6856-2.4704-.0826-5.941-3.0499-6.1544-.3824-.0267-1.0556.1715-1.17375-.325-.13335-.5604.49035-.5947.87775-.5934 3.6914.0154 6.0973 4.0039 4.3481 7.2494-2.4859 4.615-9.57396 2.717-9.1395-2.6587.22735-2.811 2.9203-4.2769 1.9524-7.3967-1.0772-3.4676-5.5663-4.0316-7.3536-.8879-1.4125 2.4846.2579 5.626 3.0918 5.9169-.2032-.4166-.62494-.7876-.8434-1.1839-.2693-.4877.3099-1.0237.7837-.5043.51576.5666.93494 1.3236 1.4672 1.894.1321.2386.0686.4876-.0788.7036-.68464.395-1.3668 1.1814-2.0375 1.5473-.3849.2097-.86884-.1347-.66305-.564.14225-.2973 1.17115-.9146 1.18135-.9908z" fill="#5c76a1"/></svg>

<?xml version="1.0" encoding="UTF-8" standalone="no"?>
<!DOCTYPE svg PUBLIC "-//W3C//DTD SVG 1.1//EN" "http://www.w3.org/Graphics/SVG/1.1/DTD/svg11.dtd">
<svg xmlns:dc="http://purl.org/dc/elements/1.1/" xmlns:xl="http://www.w3.org/1999/xlink" version="1.1" xmlns="http://www.w3.org/2000/svg" viewBox="-577.67636 -3817.6782 17.320328 17.26394" width="17.320328" height="17.26394">
  <defs/>
  <g id="SOURCES" stroke-dasharray="none" stroke="none" stroke-opacity="1" fill="none" fill-opacity="1">
    <title>SOURCES</title>
    <g id="SOURCES_Calque_2">
      <title>Calque 2</title>
      <g id="Graphic_10022">
        <path d="M -572.95545 -3807.5215 C -576.549 -3807.9547 -578.5065 -3812.046 -576.49186 -3815.0796 C -573.6096 -3819.4226 -567.036 -3816.9367 -567.43615 -3811.6486 C -567.59366 -3809.5552 -569.0926 -3808.394 -569.466 -3806.5015 C -570.34125 -3802.0696 -564.7953 -3799.9406 -562.3157 -3803.5736 C -560.6301 -3806.044 -562.3983 -3809.5146 -565.3656 -3809.728 C -565.748 -3809.7547 -566.4212 -3809.5565 -566.53935 -3810.053 C -566.6727 -3810.6134 -566.049 -3810.6477 -565.6616 -3810.6464 C -561.9702 -3810.631 -559.5643 -3806.6425 -561.3135 -3803.397 C -563.7994 -3798.782 -570.88746 -3800.68 -570.453 -3806.0557 C -570.22565 -3808.8667 -567.5327 -3810.3326 -568.5006 -3813.4524 C -569.5778 -3816.92 -574.0669 -3817.484 -575.8542 -3814.3403 C -577.2667 -3811.8557 -575.5963 -3808.7143 -572.7624 -3808.4234 C -572.9656 -3808.84 -573.38734 -3809.211 -573.6058 -3809.6073 C -573.8751 -3810.095 -573.2959 -3810.631 -572.8221 -3810.1116 C -572.30634 -3809.545 -571.88716 -3808.788 -571.3549 -3808.2176 C -571.2228 -3807.979 -571.2863 -3807.73 -571.4337 -3807.514 C -572.11834 -3807.119 -572.8005 -3806.3326 -573.4712 -3805.9667 C -573.8561 -3805.757 -574.34004 -3806.1014 -574.13425 -3806.5307 C -573.992 -3806.828 -572.9631 -3807.4453 -572.9529 -3807.5215 Z" fill="#5c76a1"/>
      </g>
    </g>
  </g>
</svg>
